Papirus/22x22/apps/preferences-desktop-wallpaper.svg

<svg xmlns="http://www.w3.org/2000/svg" width="22" height="22" version="1">
 <path opacity=".2" d="m21 11-8 8h-11c-0.554 0-1-0.446-1-1v0.5c0 0.554 0.446 1 1 1h11l8-8v-0.5z"/>
 <path fill="#5f7c8a" d="m21 11v-7c0-0.554-0.446-1-1-1h-18c-0.554 0-1 0.446-1 1v14c0 0.554 0.446 1 1 1h11z"/>
 <path fill="#7f96a1" d="m19 11.906v-6.906h-16v12h10.909z"/>
 <path fill="#fff" opacity=".2" d="m2 3c-0.554 0-1 0.446-1 1v0.5c0-0.554 0.446-1 1-1h18c0.554 0 1 0.446 1 1v-0.5c0-0.554-0.446-1-1-1h-18z"/>
 <path fill="#b2cfdd" d="m21 11h-7c-0.5523 0-1 0.44772-1 1v7z"/>
 <path fill="#fff" opacity=".2" d="m14 11c-0.5523 0-1 0.44772-1 1v0.5c0-0.5523 0.44772-1 1-1h6.5l0.5-0.5h-7z"/>
</svg>

<svg xmlns="http://www.w3.org/2000/svg" width="22" height="22" version="1">
 <path style="opacity:0.2" d="M 21,11 13,19 2,19 C 1.446,19 1,18.554 1,18 l 0,0.5 c 0,0.554 0.446,1 1,1 l 11,0 8,-8 0,-0.5 z"/>
 <path style="fill:#325f78" d="M 21,11 21,4 C 21,3.446 20.554,3 20,3 L 2,3 C 1.446,3 1,3.446 1,4 l 0,14 c 0,0.554 0.446,1 1,1 l 11,0 z"/>
 <path style="opacity:0.2" d="M 19,11.906 19,5 3,5 3,17 13.909,17 Z"/>
 <path style="opacity:0.1;fill:#ffffff" d="M 2,3 C 1.446,3 1,3.446 1,4 l 0,0.5 c 0,-0.554 0.446,-1 1,-1 l 18,0 c 0.554,0 1,0.446 1,1 L 21,4 C 21,3.446 20.554,3 20,3 L 2,3 Z"/>
 <path style="fill:#56839e" d="m 21,11 -7,0 c -0.5523,0 -1,0.44772 -1,1 l 0,7 z"/>
 <path style="opacity:0.1;fill:#ffffff" d="m 14,11 c -0.5523,0 -1,0.44772 -1,1 l 0,0.5 c 0,-0.5523 0.44772,-1 1,-1 l 6.5,0 0.5,-0.5 -7,0 z"/>
</svg>
